X:1
T:Bellefontaine Neighbors, 87.87.87 D
T:Bellefontaine Neighbors, 87.87.87 D
T:Theodore Edson Perkins, 1868
T:Public Domain Courtesy of the Cyber Hymnal™
C:Theodore Edson Perkins, 1868
Z:Public Domain
Z:Courtesy of the Cyber Hymnal™
%%score 1 ( 2 3 )
L:1/8
Q:1/4=110
M:4/4
K:A
V:1 treble 
V:2 bass 
V:3 bass 
V:1
 [Ec]3 [DB] [CA]2 [Ec]2 | [DB]2 [DA]2 [DF]2 [DA]2 | [CE]2 [CA]2 [CA]2 [CA]2 | [EG]2 [EB]2 [EB]4 | %4
 [Ec]3 [DB] [CA]2 [Ec]2 | [DB]2 [DA]2 [DF]2 [DA]2 | [CE]2 [CA]2 [CA]2 [Ec]2 | [DB]2 [DG]2 [CA]4 | %8
 [Fd]3 [Fd] [Fd]2 [Fd]2 | [Ec]2 [Ed]2 [Ee]2 [Ec]2 | [GB]3 [GB] [GB]2 [FA]2 | [EG]2 [EA]2 [EB]4 | %12
 [Ec]3 [DB] [CA]2 [Ec]2 | [DB]2 [DA]2 [DF]2 [DA]2 | [CE]2 [CA]2 [CA]2 [Ec]2 | [DB]2 [DG]2 [CA]4 | %16
 [Fd]3 [Fd] [Fd]2 [Fd]2 | [Ec]2 [Ed]2 [Ee]2 [Ec]2 | [GB]3 [GB] [GB]2 [FA]2 | [EG]2 [EA]2 [EB]4 | %20
 [Ec]3 [DB] [CA]2 [Ec]2 | [DB]2 [DA]2 [DF]2 [DA]2 | [CE]2 [CA]2 [CA]2 [Ec]2 | [DB]2 [DG]2 [CA]4 |] %24
V:2
 [A,,A,]3 [A,,E,] [A,,E,]2 [A,,E,]2 | [D,F,]2 [D,F,]2 [D,A,]2 [F,A,]2 | A,2 A,2 A,2 A,2 | %3
 [E,B,]2 [E,G,]2 [E,G,]4 | [A,,A,]3 [A,,E,] [A,,E,]2 [A,,E,]2 | [D,F,]2 [D,F,]2 [D,A,]2 [F,A,]2 | %6
 A,2 [A,,A,]2 [A,,A,]2 [A,,A,]2 | [E,G,]2 [E,B,]2 [A,,A,]4 | [D,A,]3 [D,A,] [D,A,]2 [D,A,]2 | %9
 A,2 [A,B,]2 [A,C]2 A,2 | [E,B,]3 [E,B,] [E,B,]2 [E,B,]2 | [E,B,]2 [E,C]2 [E,D]4 | %12
 [A,,A,]3 [A,,E,] [A,,E,]2 [A,,E,]2 | [D,F,]2 [D,F,]2 [D,A,]2 [F,A,]2 | A,2 A,2 A,2 A,2 | %15
 [E,G,]2 [E,B,]2 [A,,A,]4 | [D,A,]3 [D,A,] [D,A,]2 [D,A,]2 | A,2 [A,B,]2 [A,C]2 A,2 | %18
 [E,B,]3 [E,B,] [E,B,]2 [E,B,]2 | [E,B,]2 [E,C]2 [E,D]4 | [A,,A,]3 [A,,E,] [A,,E,]2 [A,,E,]2 | %21
 [D,F,]2 [D,F,]2 [D,A,]2 [F,A,]2 | A,2 A,2 A,2 A,2 | [E,G,]2 [E,B,]2 [A,,A,]4 |] %24
V:3
 x8 | x8 | A,2 A,2 A,2 A,2 | x8 | x8 | x8 | A,2 x6 | x8 | x8 | A,2 x2 A,2 x2 | x8 | x8 | x8 | x8 | %14
 A,2 A,2 A,2 A,2 | x8 | x8 | A,2 x2 A,2 x2 | x8 | x8 | x8 | x8 | A,2 A,2 A,2 A,2 | x8 |] %24

